apps/scalable/accessibility/accessibility.svg

<svg xmlns="http://www.w3.org/2000/svg" style="isolation:isolate" width="256" height="256"><defs><filter id="a" width="270.648" height="254.338" x="-7.32" y="2.95" filterUnits="userSpaceOnUse"><feGaussianBlur xmlns="http://www.w3.org/2000/svg" in="SourceGraphic" stdDeviation="4.294"/><feOffset xmlns="http://www.w3.org/2000/svg" dy="4" result="pf_100_offsetBlur"/><feFlood xmlns="http://www.w3.org/2000/svg" flood-opacity=".4"/><feComposite xmlns="http://www.w3.org/2000/svg" in2="pf_100_offsetBlur" operator="in" result="pf_100_dropShadow"/><feBlend xmlns="http://www.w3.org/2000/svg" in="SourceGraphic" in2="pf_100_dropShadow"/></filter></defs><g filter="url(#a)"><linearGradient id="b" x1=".25" x2=".75" y1=".036" y2=".902" gradientTransform="matrix(244.648 0 0 228.338 5.676 11.947)" gradientUnits="userSpaceOnUse"><stop offset="0%" stop-color="#2f5fdd"/><stop offset="100%" stop-color="#5884f4"/></linearGradient><path fill="url(#b)" d="M165.685 11.947c74.055 0 84.639 10.557 84.639 84.544v59.251c0 73.986-10.584 84.543-84.639 84.543h-75.37c-74.055 0-84.639-10.557-84.639-84.543V96.491c0-73.987 10.584-84.544 84.639-84.544h75.37z"/></g><path fill="#FAF8F6" d="M128.5 43.5c-45.795 0-83.002 37.208-83.002 83s37.207 83 83.002 83c45.795 0 83.002-37.208 83.002-83s-37.207-83-83.002-83zm0 7.901c41.52 0 75.097 33.576 75.097 75.099s-33.577 75.099-75.097 75.099c-41.52 0-75.097-33.576-75.097-75.099S86.98 51.401 128.5 51.401zm-.002 19.766a15.81 15.81 0 1 0 .001 31.619 15.81 15.81 0 0 0-.001-31.619zm-47.43 39.525v7.905l9.801.015c4.119 0 7.62.594 10.502 1.856 2.831 1.177 5.153 2.911 6.859 5.18 1.748 2.177 2.962 4.797 3.644 7.797.686 3.021.785 6.211.996 9.584l.004.047-.074 38.76h7.793v-27.667a7.905 7.905 0 1 1 15.81 0v27.667h7.905l.073-38.714c.007-3.498.333-6.725 1.004-9.677.683-3.005 1.899-5.629 3.651-7.808 1.706-2.264 4.028-3.998 6.855-5.172 2.881-1.261 6.959-1.853 10.495-1.853h9.542v-7.921l-94.86.001z"/></svg>

<svg xmlns="http://www.w3.org/2000/svg" style="isolation:isolate" width="256" height="256" viewBox="0 0 256 256">
 <defs>
  <filter id="Sw8iMFdiEHAD1JJQF02s34r2oBJYwhrq" width="270.648" height="254.338" x="-7.32" y="2.95" filterUnits="userSpaceOnUse">
   <feGaussianBlur xmlns="http://www.w3.org/2000/svg" in="SourceGraphic" stdDeviation="4.294"/>
   <feOffset xmlns="http://www.w3.org/2000/svg" dx="0" dy="4" result="pf_100_offsetBlur"/>
   <feFlood xmlns="http://www.w3.org/2000/svg" flood-opacity=".4"/>
   <feComposite xmlns="http://www.w3.org/2000/svg" in2="pf_100_offsetBlur" operator="in" result="pf_100_dropShadow"/>
   <feBlend xmlns="http://www.w3.org/2000/svg" in="SourceGraphic" in2="pf_100_dropShadow" mode="normal"/>
  </filter>
 </defs>
 <g filter="url(#Sw8iMFdiEHAD1JJQF02s34r2oBJYwhrq)">
  <linearGradient id="_lgradient_28" x1=".25" x2=".75" y1=".036" y2=".902" gradientTransform="matrix(244.648,0,0,228.338,5.676,11.947)" gradientUnits="userSpaceOnUse">
   <stop offset="0%" style="stop-color:rgb(47,95,221)"/>
   <stop offset="100%" style="stop-color:rgb(88,132,244)"/>
  </linearGradient>
  <path fill="url(#_lgradient_28)" d="M 165.685 11.947 C 239.74 11.947 250.324 22.504 250.324 96.491 L 250.324 155.742 C 250.324 229.728 239.74 240.285 165.685 240.285 L 90.315 240.285 C 16.26 240.285 5.676 229.728 5.676 155.742 L 5.676 96.491 C 5.676 22.504 16.26 11.947 90.315 11.947 L 165.685 11.947 Z"/>
 </g>
 <path fill="#FAF8F6" d="M 128.5 43.5 C 82.705 43.5 45.498 80.708 45.498 126.5 C 45.498 172.292 82.705 209.5 128.5 209.5 C 174.295 209.5 211.502 172.292 211.502 126.5 C 211.502 80.708 174.295 43.5 128.5 43.5 L 128.5 43.5 Z M 128.5 51.401 C 170.02 51.401 203.597 84.977 203.597 126.5 C 203.597 168.023 170.02 201.599 128.5 201.599 C 86.98 201.599 53.403 168.023 53.403 126.5 C 53.403 84.977 86.98 51.401 128.5 51.401 L 128.5 51.401 Z M 128.498 71.167 C 124.305 71.167 120.284 72.833 117.319 75.798 C 114.354 78.763 112.688 82.784 112.688 86.977 C 112.688 91.17 114.354 95.192 117.319 98.156 C 120.284 101.121 124.305 102.787 128.498 102.787 C 132.691 102.787 136.712 101.121 139.677 98.156 C 142.642 95.192 144.308 91.17 144.308 86.977 C 144.308 82.784 142.642 78.763 139.677 75.798 C 136.712 72.833 132.691 71.167 128.498 71.167 L 128.498 71.167 Z M 81.068 110.692 L 81.068 118.597 L 90.869 118.612 C 94.988 118.612 98.489 119.206 101.371 120.468 C 104.202 121.645 106.524 123.379 108.23 125.648 C 109.978 127.825 111.192 130.445 111.874 133.445 C 112.56 136.466 112.659 139.656 112.87 143.029 L 112.874 143.076 L 112.8 181.836 L 120.593 181.836 L 120.593 154.169 C 120.593 149.803 124.132 146.264 128.498 146.264 C 132.864 146.264 136.403 149.803 136.403 154.169 L 136.403 181.836 L 144.308 181.836 L 144.381 143.122 C 144.388 139.624 144.714 136.397 145.385 133.445 C 146.068 130.44 147.284 127.816 149.036 125.637 C 150.742 123.373 153.064 121.639 155.891 120.465 C 158.772 119.204 162.85 118.612 166.386 118.612 L 175.928 118.612 L 175.928 110.691 L 81.068 110.692 Z"/>
</svg>
